material/.icons/material/keyboard-f10.svg

<?xml version="1.0" encoding="UTF-8"?><!DOCTYPE svg PUBLIC "-//W3C//DTD SVG 1.1//EN" "http://www.w3.org/Graphics/SVG/1.1/DTD/svg11.dtd"><svg xmlns="http://www.w3.org/2000/svg" xmlns:xlink="http://www.w3.org/1999/xlink" version="1.1" id="mdi-keyboard-f10" width="24" height="24" viewBox="0 0 24 24"><path d="M2 7H8V9H4V11H7V13H4V17H2V7M10 7H14V17H12V9H10V7M18 7H20C21.11 7 22 7.9 22 9V15C22 16.11 21.11 17 20 17H18C16.9 17 16 16.11 16 15V9C16 7.9 16.9 7 18 7M18 9V15H20V9H18Z" /></svg>

<svg xmlns="http://www.w3.org/2000/svg" viewBox="0 0 24 24"><path d="M2 7h6v2H4v2h3v2H4v4H2V7m8 0h4v10h-2V9h-2V7m8 0h2a2 2 0 012 2v6c0 1.11-.89 2-2 2h-2a2 2 0 01-2-2V9c0-1.1.9-2 2-2m0 2v6h2V9h-2z"/></svg>
